coreui/free/cil-cc.svg

<svg xmlns="http://www.w3.org/2000/svg" viewBox="0 0 512 512">
  <path fill="var(--ci-primary-color, currentColor)" d="M472,64H40A24.028,24.028,0,0,0,16,88V424a24.028,24.028,0,0,0,24,24H472a24.028,24.028,0,0,0,24-24V88A24.028,24.028,0,0,0,472,64Zm-8,352H48V96H464Z" class="ci-primary"/>
  <path fill="var(--ci-primary-color, currentColor)" d="M184,344a87.108,87.108,0,0,0,54.484-18.891L218.659,299.99A55.41,55.41,0,0,1,184,312a56,56,0,0,1,0-112,55.41,55.41,0,0,1,34.659,12.01l19.825-25.119A87.108,87.108,0,0,0,184,168a88,88,0,0,0,0,176Z" class="ci-primary"/>
  <path fill="var(--ci-primary-color, currentColor)" d="M347.429,344a87.108,87.108,0,0,0,54.484-18.891L382.088,299.99A55.414,55.414,0,0,1,347.429,312a56,56,0,0,1,0-112,55.414,55.414,0,0,1,34.659,12.01l19.825-25.119A87.108,87.108,0,0,0,347.429,168a88,88,0,0,0,0,176Z" class="ci-primary"/>
</svg>

<svg viewBox="0 0 512 512" xmlns="http://www.w3.org/2000/svg"><g><path d="M472 64H40v0c-13.25.01-23.99 10.75-24 24v336 0c.01 13.24 10.75 23.98 24 24h432 -.001c13.24-.02 23.98-10.76 24-24V88v0c-.02-13.25-10.76-23.99-24-24Zm-8 352H48V96h416Z"/><path d="M184 344v0c19.77.07 38.99-6.6 54.48-18.9l-19.83-25.12v0c-9.86 7.82-22.08 12.05-34.66 12.01v0c-30.93 0-56-25.08-56-56 0-30.93 25.07-56 56-56v0c12.58-.05 24.8 4.18 34.65 12.01l19.82-25.119v-.001c-15.49-12.31-34.71-18.97-54.49-18.9v0c-48.61 0-88 39.39-88 88 0 48.6 39.39 88 88 88Z"/><path d="M347.429 344v0c19.77.07 38.99-6.6 54.48-18.9l-19.83-25.12v0c-9.86 7.82-22.08 12.05-34.66 12.01v0c-30.93 0-56-25.08-56-56 0-30.93 25.07-56 56-56v0c12.58-.05 24.8 4.18 34.65 12.01l19.82-25.119v-.001c-15.49-12.31-34.71-18.97-54.49-18.9v0c-48.61 0-88 39.39-88 88 0 48.6 39.39 88 88 88Z"/></g></svg>
